symbols/web/interests/materialsymbolsrounded/interests_wght200fill1_40px.svg

<svg xmlns="http://www.w3.org/2000/svg" height="40" width="40"><path d="M6.75 17.375q-.708 0-1.062-.604-.355-.604-.021-1.229l5.041-8.75q.167-.292.459-.438.291-.146.583-.146.333 0 .604.146.271.146.479.438l5 8.75q.334.625-.021 1.229-.354.604-1.02.604Zm5.042 16.833q-2.459 0-4.146-1.708-1.688-1.708-1.688-4.167 0-2.458 1.688-4.166 1.687-1.709 4.146-1.709 2.458 0 4.166 1.709 1.709 1.708 1.709 4.166 0 2.459-1.709 4.167-1.708 1.708-4.166 1.708Zm12 0q-.542 0-.875-.354-.334-.354-.334-.854v-9.333q0-.5.334-.855.333-.354.875-.354h9.291q.5 0 .855.354.354.355.354.855V33q0 .5-.354.854-.355.354-.855.354Zm4.625-17.416q-.25 0-.459-.063-.208-.062-.458-.229-1.667-1.208-2.812-2.208-1.146-1-1.876-1.917-.729-.917-1.041-1.729-.313-.813-.313-1.646 0-1.5.959-2.458.958-.959 2.5-.959.958 0 1.833.48.875.479 1.667 1.479.791-1 1.708-1.479.917-.48 1.875-.48 1.458 0 2.438 1.021.979 1.021.979 2.521 0 .708-.334 1.521-.333.812-1.083 1.729t-1.875 1.917q-1.125 1-2.792 2.208-.208.167-.437.229-.229.063-.479.063Z"/></svg>

<svg xmlns="http://www.w3.org/2000/svg" height="40" width="40"><path d="M6.75 17.375Q6.042 17.375 5.688 16.771Q5.333 16.167 5.667 15.542L10.708 6.792Q10.875 6.5 11.167 6.354Q11.458 6.208 11.75 6.208Q12.083 6.208 12.354 6.354Q12.625 6.5 12.833 6.792L17.833 15.542Q18.167 16.167 17.812 16.771Q17.458 17.375 16.792 17.375ZM11.792 34.208Q9.333 34.208 7.646 32.5Q5.958 30.792 5.958 28.333Q5.958 25.875 7.646 24.167Q9.333 22.458 11.792 22.458Q14.25 22.458 15.958 24.167Q17.667 25.875 17.667 28.333Q17.667 30.792 15.958 32.5Q14.25 34.208 11.792 34.208ZM23.792 34.208Q23.25 34.208 22.917 33.854Q22.583 33.5 22.583 33V23.667Q22.583 23.167 22.917 22.812Q23.25 22.458 23.792 22.458H33.083Q33.583 22.458 33.938 22.812Q34.292 23.167 34.292 23.667V33Q34.292 33.5 33.938 33.854Q33.583 34.208 33.083 34.208ZM28.417 16.792Q28.167 16.792 27.958 16.729Q27.75 16.667 27.5 16.5Q25.833 15.292 24.688 14.292Q23.542 13.292 22.812 12.375Q22.083 11.458 21.771 10.646Q21.458 9.833 21.458 9Q21.458 7.5 22.417 6.542Q23.375 5.583 24.917 5.583Q25.875 5.583 26.75 6.063Q27.625 6.542 28.417 7.542Q29.208 6.542 30.125 6.063Q31.042 5.583 32 5.583Q33.458 5.583 34.438 6.604Q35.417 7.625 35.417 9.125Q35.417 9.833 35.083 10.646Q34.75 11.458 34 12.375Q33.25 13.292 32.125 14.292Q31 15.292 29.333 16.5Q29.125 16.667 28.896 16.729Q28.667 16.792 28.417 16.792Z"/></svg>
